!!!!SEGMENT: pl-kk--kk-i-8--005_rozycki-jacek-regina-terrae-regina-caeli.krn
!!!id: 16xx:1146
!!!COM: Różycki, Jacek
!!!OTL: Regina terrae Regina caeli
!!!PDT:
!!!SMS-siglum: PL-Kk
!!!SMS-shelfmark: Kk.I.8
!!!NIFC-rismID: 1001148296
!!!URL-scan: http://repozytorium.nifc.pl/skany/pl-kk-nut--i-8
!!!ONB-nifc: UWAGA: A (skan 0004), T1 (0027), T2 (0051), B (0074). Druga pięciolinia. Następny utwór: Regi nitentis
!!!SMS-variant:
!!!SMS-altvar:
**kern	**fba	**text	**text	**text	**text	**kern	**text	**text	**text	**text	**kern	**text	**text	**text	**text	**kern	**text	**text	**text
*part4	*part4	*part4	*part4	*part4	*part4	*part3	*part3	*part3	*part3	*part3	*part2	*part2	*part2	*part2	*part2	*part1	*part1	*part1	*part1
*staff4	*	*staff4	*staff4	*staff4	*staff4	*staff3	*staff3	*staff3	*staff3	*staff3	*staff2	*staff2	*staff2	*staff2	*staff2	*staff1	*staff1	*staff1	*staff1
*I"Bassus.	*	*	*	*	*	*I"Tenor 2dus	*	*	*	*	*I"Tenore 1mo	*	*	*	*	*I"alto.	*	*	*
*I'B.	*	*	*	*	*	*I'T II	*	*	*	*	*I'T I	*	*	*	*	*I'A	*	*	*
*clefF4	*	*	*	*	*	*clefC4	*	*	*	*	*clefC4	*	*	*	*	*clefC3	*	*	*
*k[b-]	*	*	*	*	*	*k[b-]	*	*	*	*	*k[b-]	*	*	*	*	*k[b-]	*	*	*
*M3/1	*	*	*	*	*	*M3/1	*	*	*	*	*M3/1	*	*	*	*	*M3/1	*	*	*
=1	=1	=1	=1	=1	=1	=1	=1	=1	=1	=1	=1	=1	=1	=1	=1	=1	=1	=1	=1
1c\	.	Re-	In	Tri-	Quid-	1c\	Re-	In	Tri-	Quid-	1e-X\	Re-	In	Tri-	Quid-	1e-X\	Re-	In	Tri-
1A-X\	.	-gi-	tu-	-um-	-q(ui)d	1c\	-gi-	tu-	-um-	-q(ui)d	1e-\	-gi-	tu-	-um-	-q(ui)d	1e-\	-gi-	tu-	-um-
1F\	6	-na	-a	-phos	i-	1d\	-na	-a	-phos	i-	1f\	-na	-a	-phos	i-	1f\	-na	-a	-phos
=2	=2	=2	=2	=2	=2	=2	=2	=2	=2	=2	=2	=2	=2	=2	=2	=2	=2	=2	=2
!	!	!	!	!	!	!LO:N:acc=#	!	!	!	!	!	!	!	!	!	!	!	!	!
0G\	.	ter-	ma-	Re-	-ra-	0Bn\	ter-	ma-	Re-	-ra-	0d\	ter-	ma-	Re-	-ra-	0d\	Ter-	ma-	Re-
1E-\	6	-rae	-nu	-gum	-tus	1c\	-rae	-nu	-gum	-tus	1e\	-rae	-nu	-gum	-tus	1e\	-rae	-nu	-gum
=3	=3	=3	=3	=3	=3	=3	=3	=3	=3	=3	=3	=3	=3	=3	=3	=3	=3	=3	=3
1F\	.	Re-	pax	ſcep-	de-	1A\	Re-	pax	ſcep-	de-	1c\	Re-	pax	ſcep-	de-	1c\	Re-	pax	Scep-
1D\	.	-gi-	di-	-tra	-cer-	1d\	-gi-	di-	-tra	-cer-	1f\	-gi-	di-	-tra	-cer-	1f\	-gi-	di-	-tra
!	!	!	!	!	!	!LO:N:acc=#	!	!	!	!	!	!	!	!	!	!	!	!	!
1G\	7	-na	-ves	Co-	-nit	1Bn\	-na	-ves	Co-	-nit	1d\	-na	-ves	Co-	-nit	1d\	-na	-ves	co-
=4	=4	=4	=4	=4	=4	=4	=4	=4	=4	=4	=4	=4	=4	=4	=4	=4	=4	=4	=4
!	!	!	!	!	!	!	!	!	!	!	!	!	!	!	!	!LO:SIC:s=1e-	!	!	!
0C/	n	cae-	re-	-ro-	na-	0c\	cae-	re-	-ro-	na-	0e-X\	cae-	ve-	-ro-	na-	0e\	Cae-	ve-	-ro-
1C/	.	-li	-rum	-nas	-tus	1c\	-li	-r(um)	-nas	-tus	1e-\	-li	-rum.	-nas.	-tus	1e\	-li,	-rum,	-nas,
=5	=5	=5	=5	=5	=5	=5	=5	=5	=5	=5	=5	=5	=5	=5	=5	=5	=5	=5	=5
1C/	-	te	flo-	in	tu-	1c\	te	flo-	in	tu-	1G/	te	flo-	in	tu-	1e-X\	Te	flo-	in
1.D\	8 6	o-	-ret	tu-	-is	1.B-\	o-	-ret	tu-	-is	1.d\	O-	-ret	tu-	-is	1.f\	o-	-ret,	Tu-
*	*	*	*	*	*	*	*	*	*	*	*2\right	*	*	*	*	*	*	*	*
!	!	!	!	!	!	!LO:TX:a:t=P:problem:♭ above	!	!	!	!	!	!	!	!	!	!	!	!	!
2D/	7 5	-rant	et	-o	con-	2A-X/	-rant	et	-o	con-	2c\	-rant	et	-o	con-	2f\	-rant	et	-o
=6-	=6	=6	=6	=6	=6	=6	=6	=6	=6	=6	=6	=6	=6	=6	=6	=6	=6	=6	=6
!	!	!	!	!	!	!	!	!	!	!	!	!	!	!	!	!LO:SIC:s=1e-	!	!	!
1.E-X\	.	gen-	ceſ-	ſi-	-de-	1.G/	gen-	ceſ-	ſi-	-de-	2B-\	gen-	ceſ-	ſi-	-de-	0e\	Gen-	ceſ-	si-
.	.	.	.	.	.	.	.	.	.	.	2B-\	-tes	-sat	-nu	-nat	.	.	.	.
.	.	.	.	.	.	.	.	.	.	.	(1.e-X\	te	bel-	fo-	mam-	.	.	.	.
*2\right	*	*	*	*	*	*	*	*	*	*	*	*	*	*	*	*	*	*	*
2F\	.	-tes	.	-nu	-net	2A/	-tes	.	-nu	-net	.	.	.	.	.	.	.	.	.
1G\	.	te	-sat	fo	Mam-	1B-\	te	-sat	fo	Mam-	.	.	.	.	.	1d\	-tes	-sat	-n(um)
.	.	.	.	.	.	.	.	.	.	.	2d\)	.	.	.	.	.	.	.	.
=7	=7	=7	=7	=7	=7	=7	=7	=7	=7	=7	=7	=7	=7	=7	=7	=7	=7	=7	=7
1A-X\	.	lau-	bel-	ves	-mis	1A-X\	lau-	bel-	ves	-mis	1.c\	lau-	lum	-ves	-mis	(2c\	Te	bel-	fo-
.	.	.	.	.	.	.	.	.	.	.	.	.	.	.	.	2d\)	.	.	.
1c\	.	-dant	-l(um)	et	pla-	1G/	-dant	-l(um)	.	.	.	.	.	.	.	(2e\	lau-	-lum	-ves
.	.	.	.	.	.	.	.	.	.	.	2d\	.	.	.	.	2f\)	.	.	.
1G\	.	An-	se-	.	.	1B-\	An-	ſe-	et	pla-	1e\	-dant	se-	et	pla-	1g\	-dant	se-	et
=8	=8	=8	=8	=8	=8	=8	=8	=8	=8	=8	=8	=8	=8	=8	=8	=8	=8	=8	=8
0B-\	.	-ge-	-ve-	do-	-ca-	0B-\	-ge-	-ve-	do-	-ca-	1.e-X\	An-	-ve-	do-	-ca-	1.f\	an-	-ve-	do-
.	.	.	.	.	.	.	.	.	.	.	2d\	-ge-	.	.	.	2f\	-ge-	.	.
!	!	!	!	!	!	!	!	!	!	!	!	!	!	!	!	!LO:SIC:s=1e-	!	!	!
1E-X\	.	-li	-r(um)	-nas	-tus	1G/	-li	-r(um)	-nas	-tus	1e-\	-li	-rum	-nas	-tus	1e\	-li,	-rum,	-nas,
!LO:PB:g=original	!	!	!	!	!	!LO:PB:g=original	!	!	!	!	!LO:PB:g=original	!	!	!	!	!LO:PB:g=original	!	!	!
=9||	=9||	=9||	=9||	=9||	=9||	=9||	=9||	=9||	=9||	=9||	=9||	=9||	=9||	=9||	=9||	=9||	=9||	=9||	=9||
1E\	x 3	Sa-	Vir-	Com-	Ma-	1B-\	Sa-	Vir-	Com-	Ma-	1G/	Sa-	Vir-	Com-	Ma-	1e\	Sa-	Vir-	Com-
1E\	6 4 2	-lus	-tus	-peſ-	-ter	1c\	-lus	-tus	-peſ-	-ter	1A\	-lus	-tus	-pes-	-ter	1e\	-lus	-tus	-pes-
!	!	!	!	!	!	!	!	!	!	!	!LO:N:acc=#	!	!	!	!	!	!	!	!
1D\	x 6	hu-	et	-ce	es	1d\	hu-	et	-ce	es	1BnX\	hu-	et	-ce	es	1f\	hu-	et	-ce
=10	=10	=10	=10	=10	=10	=10	=10	=10	=10	=10	=10	=10	=10	=10	=10	=10	=10	=10	=10
*	*	*	*	*	*	*	*	*	*	*	*	*	*	*	*	*lig	*	*	*
!	!	!	!	!	!	!	!	!	!	!	!	!	!	!	!	!LO:SIC:s=1e-	!	!	!
0C/	-	-ma-	ho-	bel-	pu-	0e-X\	-ma-	ho-	bel-	pu-	1c\	-ma-	ho-	bel-	pu-	1e\	-ma-	ho-	bel-
.	.	.	.	.	.	.	.	.	.	.	0G/	-na	-nor	-la	-er	1f\	.	.	.
*	*	*	*	*	*	*	*	*	*	*	*	*	*	*	*	*Xlig	*	*	*
!LO:N:acc=#	!	!	!	!	!	!	!	!	!	!	!	!	!	!	!	!	!	!	!
1BBn/	6	-na	-nor	-la	-er	1d\	-na	-nor	-la	-er	.	.	.	.	.	1g\	-na	-nor,	-la
=11	=11	=11	=11	=11	=11	=11	=11	=11	=11	=11	=11	=11	=11	=11	=11	=11	=11	=11	=11
1C/	.	Vic-	ſa-	ſis-	eſt	1G/	Vic-	ſa-	ſis-	eſt	1c\	Vi-	ſa-	ſis-	eſt	1e\	Vic-	Sa-	viſ-
1AA-X/	.	-trix	-lus	-te	ad	1A-X\	-trix	-lus	-te	ad	1c\	-drix	-lus	-te	ad-	1e\	-trix	-lus	-te
1FF/	6	in-	et	Cru-	huc	1A-\	in-	et	Cru-	huc	1d\	in-	et	Cru-	-huc	1f\	in-	et	Cru-
=12	=12	=12	=12	=12	=12	=12	=12	=12	=12	=12	=12	=12	=12	=12	=12	=12	=12	=12	=12
!	!	!	!	!	!	!	!	!	!	!	!LO:N:acc=#	!	!	!	!	!	!	!	!
0GG/	.	-fer-	vi-	-o-	il-	0G/	-fer-	vi-	-o-	il-	0Bn\	-fer-	vi-	-o-	il-	0d\	-fer-	Vi-	-o-
1GG/	.	-ni	-ta	-rem	-le	1G/	-ni	-ta	-rem	-le	1B\	-ni	-ta	-rem	-le	1d\	-ni	-tam	-rem,
=13	=13	=13	=13	=13	=13	=13	=13	=13	=13	=13	=13	=13	=13	=13	=13	=13	=13	=13	=13
1G\	3	Por-	ad	fac	oc-	1G/	Por-	ad	fac	oc-	1B-X\	Por-	ad	fac	oc-	1d\	Por-	ad	fac
1G\	4	-ta	tu-	Re-	-cu-	1B-\	-ta	tu-	Re-	-cu-	1c\	-ta	tu-	Re-	-cu-	1e-X\	-ta	Tu-	Re-
1F\	6	et	-a	-gem	-pa	1A-X\	et	-a	-gem	-pa	1d\	et	-a	-gem	-pa	1f\	et	-a	-gem
=14	=14	=14	=14	=14	=14	=14	=14	=14	=14	=14	=14	=14	=14	=14	=14	=14	=14	=14	=14
0E-X\	.	cla-	dan-	noſ-	e-	1G/	cla-	dan-	noſ-	e-	0e-X\	Cla-	dan-	noſ-	e-	0g\	Cla-	dan-	nos-
.	.	.	.	.	.	1.c\	-vis	-tur	-trum	-um	.	.	.	.	.	.	.	.	.
1E-\	.	-vis	-tur	-trum	-um	.	.	.	.	.	1e-\	-vis	-tur	-trum	-um	1g\	-vis	-tur	-trum
.	.	.	.	.	.	2B-\	.	.	.	.	.	.	.	.	.	.	.	.	.
=15	=15	=15	=15	=15	=15	=15	=15	=15	=15	=15	=15	=15	=15	=15	=15	=15	=15	=15	=15
1F\	.	Re-	lar-	hoſ-	ba-	1A#X\	Re-	lar-	hoſ-	ba-	1d\	Re-	lar-	hoſ-	ba-	1f\	Re-	lar-	Hoſ-
!	!	!	!	!	!	!LO:N:acc=#	!	!	!	!	!	!	!	!	!	!	!	!	!
1D\	6	-gis	-ge	-tis	-si-	1Bn\	-gis	-ge	-tis	-ſi-	1d\	-gis	-ge	-tis	-ſi-	1f\	-gis	-ge	-tis
1E-X\	6	at-	pe-	Vic-	-js	1c\	ae-	pe-	Vic-	-js	1c\	ae-	pe-	ic-	-js	1e-X\	ae-	pe-	ic-
=16	=16	=16	=16	=16	=16	=16	=16	=16	=16	=16	=16	=16	=16	=16	=16	=16	=16	=16	=16
!	!	!	!	!	!	!	!	!	!	!	!	!	!	!	!	!LO:SIC:s=1e-	!	!	!
(1F\	6 5	-ter-	-ti-	-to-	mil-	1A-X\	-ter-	-ti-	-to-	mil-	0c\	-ter-	-ti-	-to-	mil-	1e\	-ter-	-ti-	-to-
0G\)	.	.	.	.	.	0G/	.	.	.	.	.	.	.	.	.	0d\	.	.	.
!	!	!	!	!	!	!	!	!	!	!	!LO:N:acc=#	!	!	!	!	!	!	!	!
.	.	.	.	.	.	.	.	.	.	.	1Bn\	.	.	.	.	.	.	.	.
=17	=17	=17	=17	=17	=17	=17	=17	=17	=17	=17	=17	=17	=17	=17	=17	=17	=17	=17	=17
0.C/;<	.	-ni-	-ta-	-rem-	-le-	0.G/;<	-ni	-ta	-rem	-le.	0.c\;<	-ni.	-ta.	-rem.	-le.	0.c\;;	-ni.	-ta.	-rem
==	==	==	==	==	==	==	==	==	==	==	==	==	==	==	==	==	==	==	==
*-	*-	*-	*-	*-	*-	*-	*-	*-	*-	*-	*-	*-	*-	*-	*-	*-	*-	*-	*-
!!!system-decoration: [(s1,s2,s3,s4)]
!!!RDF**kern: > = above
!!!RDF**kern: < = below
!!!ENC:Berenika Jozajtis
!!!END:2021-03-24
!!!EED: Leszek Kubiak
!!!EST: 2021-04-01
